X:3 
T: Jaj már minékünk
L: 1/4
M: 4/4
K:B
D =E ^F G | A3 z |
A<G c B | A3 z |
D =E ^F G | A3 z |
A<G c B | A3 z |
d>d d<d | c c/ c/ c c | c<d c B | A3 z |
G>F G F | G/ G/ F G F | G<G F E | D3 z |

